icon_installer/data/icons/scalable/actions/show-x-circular-symbolic.svg

<?xml version="1.0" encoding="UTF-8"?>
<svg height="16px" viewBox="0 0 16 16" width="16px" xmlns="http://www.w3.org/2000/svg">
    <path d="m 7.96875 1 c -3.851562 0 -6.96875 3.117188 -6.96875 6.96875 s 3.117188 6.96875 6.96875 6.96875 s 6.96875 -3.117188 6.96875 -6.96875 s -3.117188 -6.96875 -6.96875 -6.96875 z m -3 3.96875 h 1 h 0.03125 c 0.253906 0.011719 0.511719 0.128906 0.6875 0.3125 l 1.28125 1.28125 l 1.3125 -1.28125 c 0.265625 -0.230469 0.445312 -0.304688 0.6875 -0.3125 h 1 v 1 c 0 0.285156 -0.035156 0.550781 -0.25 0.75 l -1.28125 1.28125 l 1.25 1.25 c 0.1875 0.1875 0.28125 0.453125 0.28125 0.71875 v 1 h -1 c -0.265625 0 -0.53125 -0.09375 -0.71875 -0.28125 l -1.28125 -1.28125 l -1.28125 1.28125 c -0.1875 0.1875 -0.453125 0.28125 -0.71875 0.28125 h -1 v -1 c 0 -0.265625 0.09375 -0.53125 0.28125 -0.71875 l 1.28125 -1.25 l -1.28125 -1.28125 c -0.210938 -0.195312 -0.304688 -0.46875 -0.28125 -0.75 z m 0 0" fill="#222222"/>
</svg>

<svg xmlns="http://www.w3.org/2000/svg" width="16" height="16"><path fill="#222" d="M7.969 1C4.117 1 1 4.117 1 7.969s3.117 6.968 6.969 6.968 6.968-3.117 6.968-6.968S11.82 1 7.97 1zm-3 3.969H6c.254.011.512.129.688.312l1.28 1.282L9.282 5.28c.266-.23.446-.304.688-.312h1v1c0 .285-.035.55-.25.75L9.438 8l1.25 1.25c.187.188.28.453.28.719v1h-1c-.265 0-.53-.094-.718-.281L7.969 9.405l-1.282 1.281a1.016 1.016 0 0 1-.718.282h-1v-1c0-.266.093-.531.281-.719L6.531 8 5.25 6.719a.904.904 0 0 1-.281-.75zm0 0"/></svg>
